src/icons/community-circle.svg

<svg width="207" height="200" viewBox="0 0 207 200" fill="none" xmlns="http://www.w3.org/2000/svg">
<g opacity="0.7" filter="url(#filter0_f_392_1288)">
<circle cx="103.645" cy="101.623" r="16.2562" stroke="#D9D9D9" stroke-width="0.506188"/>
<circle cx="103.645" cy="101.623" r="33.48" stroke="#D9D9D9" stroke-width="0.506188" stroke-dasharray="0.84 0.84"/>
<circle cx="103.645" cy="101.624" r="53.0262" stroke="#D9D9D9" stroke-width="0.506188"/>
<circle cx="103.645" cy="101.624" r="73.927" stroke="#D9D9D9" stroke-width="0.506188" stroke-dasharray="0.84 0.84"/>
<circle cx="103.646" cy="101.624" r="96.1825" stroke="#D9D9D9" stroke-width="0.506188"/>
<rect x="149.764" y="85.6203" width="9.17012" height="9.17012" rx="4.58506" fill="white" stroke="white" stroke-width="0.506188"/>
<rect x="127.702" y="115.812" width="9.17012" height="9.17012" rx="4.58506" fill="white" stroke="white" stroke-width="0.506188"/>
<rect x="115.317" y="68.3976" width="9.17012" height="9.17012" rx="4.58506" fill="white" stroke="white" stroke-width="0.506188"/>
<rect x="179.954" y="44.0109" width="9.17012" height="9.17012" rx="4.58506" fill="white" stroke="white" stroke-width="0.506188"/>
<rect x="172.987" y="96.2629" width="9.17012" height="9.17012" rx="4.58506" fill="white" stroke="white" stroke-width="0.506188"/>
<rect x="46.0339" y="45.9465" width="9.17012" height="9.36365" rx="4.58506" fill="white" stroke="white" stroke-width="0.506188"/>
<rect x="163.892" y="134.39" width="9.17012" height="9.36365" rx="4.58506" fill="white" stroke="white" stroke-width="0.506188"/>
<rect x="144.926" y="38.9816" width="9.17012" height="9.36365" rx="4.58506" fill="white" stroke="white" stroke-width="0.506188"/>
<rect x="92.674" y="44.0129" width="9.17012" height="9.17012" rx="4.58506" fill="white" stroke="white" stroke-width="0.506188"/>
<rect x="75.0627" y="77.298" width="9.17012" height="9.17012" rx="4.58506" fill="white" stroke="white" stroke-width="0.506188"/>
<rect x="77.9655" y="120.648" width="9.17012" height="9.36365" rx="4.58506" fill="white" stroke="white" stroke-width="0.506188"/>
<rect x="46.0348" y="105.554" width="9.17012" height="9.17012" rx="4.58506" fill="white" stroke="white" stroke-width="0.506188"/>
<rect x="102.35" y="149.872" width="9.17012" height="9.36365" rx="4.58506" fill="white" stroke="white" stroke-width="0.506188"/>
<rect x="57.4523" y="158.001" width="9.17012" height="9.17012" rx="4.58506" fill="white" stroke="white" stroke-width="0.506188"/>
<rect x="148.409" y="179.868" width="9.17012" height="9.17012" rx="4.58506" fill="white" stroke="white" stroke-width="0.506188"/>
<rect x="19.9084" y="152.968" width="9.36365" height="9.36365" rx="4.68183" fill="white" stroke="white" stroke-width="0.506188"/>
<rect x="12.5544" y="53.6886" width="9.17012" height="9.36365" rx="4.58506" fill="white" stroke="white" stroke-width="0.506188"/>
<rect x="99.4469" y="2.40348" width="9.17012" height="9.17012" rx="4.58506" fill="white" stroke="white" stroke-width="0.506188"/>
<rect x="190.405" y="127.034" width="9.17012" height="9.17012" rx="4.58506" fill="white" stroke="white" stroke-width="0.506188"/>
<rect x="52.6134" y="12.0793" width="9.17012" height="9.17012" rx="4.58506" fill="white" stroke="white" stroke-width="0.506188"/>
<rect x="57.4523" y="184.706" width="9.17012" height="9.17012" rx="4.58506" fill="white" stroke="white" stroke-width="0.506188"/>
<rect x="195.201" y="82.1359" width="9.17012" height="9.17012" rx="4.58506" fill="white" stroke="white" stroke-width="0.506188"/>
<rect x="137.378" y="12.0812" width="9.17012" height="9.17012" rx="4.58506" fill="white" stroke="white" stroke-width="0.506188"/>
<rect x="2.87712" y="103.425" width="9.17012" height="9.36365" rx="4.58506" fill="white" stroke="white" stroke-width="0.506188"/>
<rect x="142.217" y="158.001" width="9.17012" height="9.17012" rx="4.58506" fill="white" stroke="white" stroke-width="0.506188"/>
<path d="M101.604 104.896C101.12 104.459 100.978 103.54 101.18 102.875C101.53 103.294 102.015 103.427 102.518 103.502C103.293 103.618 104.055 103.575 104.775 103.225C104.858 103.185 104.934 103.132 105.024 103.078C105.091 103.271 105.109 103.467 105.085 103.666C105.028 104.15 104.784 104.524 104.395 104.807C104.24 104.921 104.076 105.022 103.915 105.129C103.422 105.458 103.289 105.843 103.474 106.404C103.479 106.418 103.482 106.431 103.492 106.465C103.241 106.354 103.057 106.192 102.917 105.979C102.769 105.754 102.699 105.506 102.695 105.237C102.693 105.107 102.693 104.975 102.675 104.846C102.632 104.531 102.482 104.391 102.201 104.382C101.911 104.374 101.683 104.551 101.622 104.828C101.617 104.85 101.611 104.871 101.604 104.895L101.604 104.896Z" fill="white"/>
<path d="M99.168 103.081C99.168 103.081 100.493 102.437 101.821 102.437L102.823 99.3448C102.86 99.1952 102.97 99.0936 103.094 99.0936C103.217 99.0936 103.327 99.1952 103.364 99.3448L104.366 102.437C105.939 102.437 107.019 103.081 107.019 103.081C107.019 103.081 104.769 96.9658 104.764 96.9535C104.7 96.7727 104.591 96.6562 104.444 96.6562H101.744C101.597 96.6562 101.492 96.7727 101.423 96.9535C101.418 96.9655 99.168 103.081 99.168 103.081Z" fill="white"/>
</g>
<defs>
<filter id="filter0_f_392_1288" x="0.942051" y="0.468418" width="205.364" height="199.272" filterUnits="userSpaceOnUse" color-interpolation-filters="sRGB">
<feFlood flood-opacity="0" result="BackgroundImageFix"/>
<feBlend mode="normal" in="SourceGraphic" in2="BackgroundImageFix" result="shape"/>
<feGaussianBlur stdDeviation="0.840986" result="effect1_foregroundBlur_392_1288"/>
</filter>
</defs>
</svg>

<svg xmlns="http://www.w3.org/2000/svg" width="207" height="200" fill="none" stroke-width=".5">
  <g filter="url(#filter0_f_392_1288)" opacity=".7">
    <circle cx="103.6" cy="101.6" r="16.3" stroke="#D9D9D9"/>
    <circle cx="103.6" cy="101.6" r="33.5" stroke="#D9D9D9" opacity=".5"/>
    <circle cx="103.6" cy="101.6" r="53" stroke="#D9D9D9"/>
    <circle cx="103.6" cy="101.6" r="73.9" stroke="#D9D9D9" opacity=".5"/>
    <circle cx="103.6" cy="101.6" r="96.2" stroke="#D9D9D9"/>
    <g fill="#fff">
      <g stroke="#fff">
        <rect width="9.2" height="9.2" x="149.8" y="85.6" rx="4.6"/>
        <rect width="9.2" height="9.2" x="127.7" y="115.8" rx="4.6"/>
        <rect width="9.2" height="9.2" x="115.3" y="68.4" rx="4.6"/>
        <rect width="9.2" height="9.2" x="180" y="44" rx="4.6"/>
        <rect width="9.2" height="9.2" x="173" y="96.3" rx="4.6"/>
        <rect width="9.2" height="9.4" x="46" y="45.9" rx="4.6"/>
        <rect width="9.2" height="9.4" x="163.9" y="134.4" rx="4.6"/>
        <rect width="9.2" height="9.4" x="144.9" y="39" rx="4.6"/>
        <rect width="9.2" height="9.2" x="92.7" y="44" rx="4.6"/>
        <rect width="9.2" height="9.2" x="75.1" y="77.3" rx="4.6"/>
        <rect width="9.2" height="9.4" x="78" y="120.6" rx="4.6"/>
        <rect width="9.2" height="9.2" x="46" y="105.6" rx="4.6"/>
        <rect width="9.2" height="9.4" x="102.3" y="149.9" rx="4.6"/>
        <rect width="9.2" height="9.2" x="57.5" y="158" rx="4.6"/>
        <rect width="9.2" height="9.2" x="148.4" y="179.9" rx="4.6"/>
        <rect width="9.4" height="9.4" x="19.9" y="153" rx="4.7"/>
        <rect width="9.2" height="9.4" x="12.6" y="53.7" rx="4.6"/>
        <rect width="9.2" height="9.2" x="99.4" y="2.4" rx="4.6"/>
        <rect width="9.2" height="9.2" x="190.4" y="127" rx="4.6"/>
        <rect width="9.2" height="9.2" x="52.6" y="12.1" rx="4.6"/>
        <rect width="9.2" height="9.2" x="57.5" y="184.7" rx="4.6"/>
        <rect width="9.2" height="9.2" x="195.2" y="82.1" rx="4.6"/>
        <rect width="9.2" height="9.2" x="137.4" y="12.1" rx="4.6"/>
        <rect width="9.2" height="9.4" x="2.9" y="103.4" rx="4.6"/>
        <rect width="9.2" height="9.2" x="142.2" y="158" rx="4.6"/>
      </g>
      <path d="M101.6 104.9c-.5-.4-.6-1.4-.4-2 .3.4.8.5 1.3.6.8.1 1.6 0 2.3-.3l.2-.1v.6c0 .5-.2.8-.6 1.1l-.5.3c-.5.4-.6.7-.4 1.3-.3 0-.4-.2-.6-.4l-.2-.8v-.4c0-.3-.2-.4-.5-.4s-.5.2-.6.4v.1Z"/>
      <path d="M99.2 103s1.3-.6 2.6-.6l1-3c0-.2.2-.3.3-.3l.3.2 1 3.1c1.5 0 2.6.7 2.6.7l-2.2-6.1c-.1-.2-.2-.3-.4-.3h-2.7c-.1 0-.2 0-.3.3l-2.2 6Z"/>
    </g>
  </g>
  <defs>
    <filter id="filter0_f_392_1288" width="205.4" height="199.3" x=".9" y=".5" color-interpolation-filters="sRGB" filterUnits="userSpaceOnUse">
      <feFlood flood-opacity="0" result="BackgroundImageFix"/>
      <feBlend in="SourceGraphic" in2="BackgroundImageFix" result="shape"/>
      <feGaussianBlur result="effect1_foregroundBlur_392_1288" stdDeviation=".8"/>
    </filter>
  </defs>
</svg>
